X: 96
T:Doc Boyd's Jig
M:6/8
L:1/8
R:Jig
K:C
GAB||:"C"cBc GEG|cea g2 e|"F"faf ABc|"G7"BdB GAB|!
"C"cBc GEG|cea g2e|"F"fdB "G"GAB|[1"C"c3 GAB:||[2"C"c3 g3||!
|:"F"a2 a agf|"C"g>ag gfe|"G7"f>gf fed|"C"g2 e c2 g|!
"F"a2 a agf|"C"g>ag gfe|"G7"fdB GAB|1"C"c3 g3:||2"C"c6!
% <A name="D1X097">
